X: 32072
T: Pennan Den
R: hornpipe
M: 4/4
K: Adorian
E2|:A4 ABcA|Be3e3d|c3A G3E|DEGD EG3|
A3B c3d|e2c2 de3|c2A2 B2G2|A4A2E2:|
A3B c3d|edcd ec (3ded|c3A G3E|DEGD EG3|
A3B c3d|e2c2 de3|c2A2 B2G2|A4A2E2:|

